wp-content/themes/portfolio/resources/img/Discord.svg

<svg fill="none" height="40" viewBox="0 0 40 40" width="40" xmlns="http://www.w3.org/2000/svg"><path d="m39 19.9977c0 10.4921-8.5065 18.9978-19 18.9978-10.49352 0-19-8.5057-19-18.9978 0-10.49202 8.50648-18.9977 19-18.9977 10.4935 0 19 8.50568 19 18.9977z" stroke="#000" stroke-width="2"/><path d="m28.6819 13.5257s-2.4749-1.9365-5.3979-2.1588l-.2634.5266c2.6427.6467 3.8551 1.5733 5.1213 2.7116-2.1835-1.1145-4.3393-2.1589-8.0966-2.1589s-5.9133 1.0444-8.0965 2.1589c1.2663-1.1383 2.7085-2.1671 5.1212-2.7116l-.2634-.5266c-3.0662.2898-5.3975 2.1588-5.3975 2.1588s-2.76414 4.0074-3.23869 11.8738c2.78639 3.2127 7.01709 3.2381 7.01709 3.2381l.8847-1.1793c-1.5016-.5219-3.1976-1.454-4.6631-3.1383 1.7479 1.3222 4.3857 2.6986 8.6364 2.6986s6.8885-1.3763 8.6364-2.6986c-1.4655 1.6843-3.1615 2.6166-4.6631 3.1383l.8847 1.1793s4.2307-.0254 7.0171-3.2383c-.4746-7.8662-3.2387-11.8736-3.2387-11.8736zm-12.1449 9.7149c-1.0435 0-1.8893-.9666-1.8893-2.1588 0-1.1923.8458-2.1589 1.8893-2.1589 1.0434 0 1.8892.9666 1.8892 2.1589 0 1.1922-.8458 2.1588-1.8892 2.1588zm7.017 0c-1.0434 0-1.8892-.9666-1.8892-2.1588 0-1.1923.8458-2.1589 1.8892-2.1589 1.0435 0 1.8893.9666 1.8893 2.1589 0 1.1922-.846 2.1588-1.8893 2.1588z" fill="#000"/></svg>

<svg width="40" height="40" viewBox="0 0 40 40" fill="none" xmlns="http://www.w3.org/2000/svg">
<path d="M39 19.9977C39 30.4898 30.4935 38.9955 20 38.9955C9.50648 38.9955 1 30.4898 1 19.9977C1 9.50568 9.50648 1 20 1C30.4935 1 39 9.50568 39 19.9977Z" stroke="black" stroke-width="2"/>
<path d="M28.6819 13.5257C28.6819 13.5257 26.207 11.5892 23.284 11.3669L23.0206 11.8935C25.6633 12.5402 26.8757 13.4668 28.1419 14.6051C25.9584 13.4906 23.8026 12.4462 20.0453 12.4462C16.288 12.4462 14.132 13.4906 11.9488 14.6051C13.2151 13.4668 14.6573 12.438 17.07 11.8935L16.8066 11.3669C13.7404 11.6567 11.4091 13.5257 11.4091 13.5257C11.4091 13.5257 8.64496 17.5331 8.17041 25.3995C10.9568 28.6122 15.1875 28.6376 15.1875 28.6376L16.0722 27.4583C14.5706 26.9364 12.8746 26.0043 11.4091 24.32C13.157 25.6422 15.7948 27.0186 20.0455 27.0186C24.2962 27.0186 26.934 25.6423 28.6819 24.32C27.2164 26.0043 25.5204 26.9366 24.0188 27.4583L24.9035 28.6376C24.9035 28.6376 29.1342 28.6122 31.9206 25.3993C31.446 17.5331 28.6819 13.5257 28.6819 13.5257ZM16.537 23.2406C15.4935 23.2406 14.6477 22.274 14.6477 21.0818C14.6477 19.8895 15.4935 18.9229 16.537 18.9229C17.5804 18.9229 18.4262 19.8895 18.4262 21.0818C18.4262 22.274 17.5804 23.2406 16.537 23.2406ZM23.554 23.2406C22.5106 23.2406 21.6648 22.274 21.6648 21.0818C21.6648 19.8895 22.5106 18.9229 23.554 18.9229C24.5975 18.9229 25.4433 19.8895 25.4433 21.0818C25.4433 22.274 24.5973 23.2406 23.554 23.2406Z" fill="black"/>
</svg>
